src/images/point.svg

<svg width="12" height="19" viewBox="0 0 12 19" fill="none" xmlns="http://www.w3.org/2000/svg">
<path fill-rule="evenodd" clip-rule="evenodd" d="M3.37948 0H0.758789V19H3.37948V16.3793H6.00017V13.7586H8.62086V11.1379H11.2415V7.86207H8.62086V5.24138H6.00017V2.62069H3.37948V0Z" fill="#00EDFF"/>
</svg>

<svg width="12" height="19" viewBox="0 0 12 19" fill="none" xmlns="http://www.w3.org/2000/svg"><path fill-rule="evenodd" clip-rule="evenodd" d="M3.38 0H.758v19h2.62v-2.62H6v-2.621h2.62v-2.621h2.622V7.862H8.62v-2.62H6V2.62H3.378V0z" fill="#00EDFF"/></svg>
